!!!SOCIAL_FUNCTION:	bird dance songs
!!!PDT:	1956
!!!OTL: No_117_Hinata_Dance_Song_(m).krn
!!!LANG: Non-Tone
!!!LING_GROUP: Muskogean
!!!REG: Florida
**kern
*staff1
=1-
*clefF4
*k[b-e-]
*M3/4
8.B-\L
16F\Jk
8F\
16r
16B-\
(16B-\LK
8.G\J)
=2!|:
*M2/4
8.c\L
16B-\Jk
(4G\
=3
4F\)
8.r
16G\
=4
8.F\L
16F\Jk
8F\L
16B-\L
16B-\JJ
=5||
*M5/8
8.F\L
16F\L
(16F\
32D\JJk)
32r
16B-\LK
8.B-\J
=6||
*M2/4
8.c\L
16B-\Jk
(4G\
=7
4F\)
8.r
16G\
=8
8F\L
16F\L
16F\JJ
8F\L
16B-\L
16B-\JJ
=9||
*M5/8
8.F\L
16F\L
(16F\
32D\JJk)
32r
16B-\LL
16B-\J
8G\J
=10||
*M2/4
8.c\L
16B-\Jk
(4G\
=11
4F\)
8.r
16G\
=12
8F\L
16F\L
16F\JJ
4F\
=13||
*M3/4
8.B-\L
16F\Jk
16F\LK
8D\
16B-\Jk
(16B-\LK
8.F\J)
==:|!
*-
